X: 1
T: Fairhaired Boy, The
Z: slainte
S: https://thesession.org/tunes/3119#setting3119
R: jig
M: 6/8
L: 1/8
K: Ador
G|E2A AGA|Bdd dBd|ege dBG|BAB GED|
E2A AGA|Bdd dBd|ege dBG|1 BAG A2:|2 BAG ABd||
e2a aba|egg gag|ege dBG|BAB GED|
e2a aba|egg gag|ege dBG|BAG ABd|
e2a aba|egg gag|ege dBG|BAB GED|
E2A AGA|Bdd dBd|ege dBG|BAG A2||

